icon-svg/rooms-studio.svg

<?xml version="1.0" encoding="UTF-8"?>
<svg width="32px" height="32px" viewBox="0 0 32 32" version="1.1" fill="#44739e" xmlns="http://www.w3.org/2000/svg" xmlns:xlink="http://www.w3.org/1999/xlink">
            <path d="M25,6 C25.553,6 26,6.447 26,7 L26,16 C26,16.553 25.553,17 25,17 L7,17 C6.447,17 6,16.553 6,16 L6,7 C6,6.447 6.447,6 7,6 L15,6 L15,4 C15,3.447 15.447,3 16,3 C16.553,3 17,3.447 17,4 L17,6 L25,6 Z M21.0950103,21 L24.8660103,27.498 C25.1430103,27.976 24.9800103,28.588 24.5020103,28.865 C24.3440103,28.957 24.1710103,29 24.0010103,29 C23.6570103,29 23.3210103,28.821 23.1350103,28.502 L18.7820103,21 L17.0000103,21 L17.0000103,27.95 C17.0000103,28.503 16.5530103,28.95 16.0000103,28.95 C15.4480103,28.95 15.0000103,28.503 15.0000103,27.95 L15.0000103,21 L13.2180103,21 L8.86601026,28.502 C8.68001026,28.821 8.34401026,29 7.99901026,29 C7.82901026,29 7.65701026,28.957 7.49801026,28.865 C7.02101026,28.588 6.85801026,27.976 7.13501026,27.498 L10.9060103,21 L9.00001026,21 C8.44801026,21 8.00001026,20.553 8.00001026,20 C8.00001026,19.447 8.44801026,19 9.00001026,19 L23.0000103,19 C23.5530103,19 24.0000103,19.447 24.0000103,20 C24.0000103,20.553 23.5530103,21 23.0000103,21 L21.0950103,21 Z"></path>

</svg>

<svg xmlns="http://www.w3.org/2000/svg" fill="#44739e" viewBox="0 0 24 24"><path d="M25 6c.553 0 1 .447 1 1v9c0 .553-.447 1-1 1H7c-.553 0-1-.447-1-1V7c0-.553.447-1 1-1h8V4c0-.553.447-1 1-1s1 .447 1 1v2zm-3.905 15 3.771 6.498c.277.478.114 1.09-.364 1.367a.993.993 0 0 1-.501.135c-.344 0-.68-.179-.866-.498L18.782 21H17v6.95c0 .553-.447 1-1 1-.552 0-1-.447-1-1V21h-1.782l-4.352 7.502a1.003 1.003 0 0 1-.867.498c-.17 0-.342-.043-.501-.135-.477-.277-.64-.889-.363-1.367L10.906 21H9c-.552 0-1-.447-1-1s.448-1 1-1h14c.553 0 1 .447 1 1s-.447 1-1 1z"/></svg>
